src/assets/img/providers/redrake.svg

<svg width="56" height="34" viewBox="0 0 56 34" fill="none" xmlns="http://www.w3.org/2000/svg">
<g clip-path="url(#clip0_4416_8721)">
<path fill-rule="evenodd" clip-rule="evenodd" d="M55.1812 2.50816C54.9755 1.69903 54.3324 0.960328 53.4162 0.481684C52.8147 0.16719 52.1664 0.000976562 51.5415 0.000976562C50.634 0.000976562 49.8684 0.366078 49.4417 1.0027L49.4399 1.00493L48.8836 1.83828C48.8338 1.9128 48.7922 1.99095 48.7593 2.0715C48.6861 2.15069 48.6186 2.23535 48.5583 2.32571L45.5264 6.86247C45.476 6.93721 45.435 7.01565 45.4015 7.09643C45.3283 7.1755 45.2609 7.26009 45.2005 7.35031L44.2801 8.72719C44.2381 8.79024 44.2 8.85477 44.1658 8.92059H4.43736C3.78168 8.92059 3.22309 9.39689 3.11945 10.0444L0.465042 26.624C0.403314 27.01 0.513757 27.4036 0.76735 27.701C1.02094 27.9984 1.39213 28.1697 1.78295 28.1697H32.2189L42.9735 33.7903C43.12 33.8666 43.2754 33.9137 43.4325 33.9326C43.5186 33.9612 43.6083 33.9813 43.7004 33.9921C43.752 33.998 43.8035 34.001 43.8545 34.001C44.2965 34.001 44.7139 33.7814 44.9636 33.4087L46.1507 31.6357C46.4286 31.2207 46.4514 30.6853 46.2099 30.2481C45.7626 29.4387 44.9648 28.9745 44.0204 28.9745C43.7162 28.9745 43.4301 29.0226 43.1869 29.0852L41.9852 28.1697H50.2987C50.9547 28.1697 51.5133 27.6935 51.6165 27.046L54.2715 10.4662C54.333 10.0803 54.2228 9.68671 53.969 9.38933C53.7151 9.09194 53.3441 8.92059 52.9531 8.92059H51.7459L54.0282 5.50757C54.0897 5.4146 54.1436 5.3177 54.1888 5.21767C54.2486 5.15772 54.3031 5.09154 54.3512 5.01946L54.9075 4.18826C55.2352 3.70039 55.3325 3.10381 55.1812 2.50816ZM50.5502 1.74596C50.8949 1.23208 51.9026 1.19583 52.7977 1.66415C53.6952 2.1332 54.1454 2.92991 53.799 3.4443L53.2421 4.27693C53.1922 3.76312 52.7473 3.19986 52.0234 2.82221C51.3011 2.44551 50.5279 2.37122 49.9933 2.57932L50.5502 1.74596ZM49.668 3.06734C50.0115 2.55294 51.018 2.51605 51.9149 2.98515C52.8124 3.45343 53.262 4.25115 52.9179 4.76674L49.8849 9.30236C49.8356 8.78714 49.3889 8.22491 48.6656 7.84739C47.9434 7.46958 47.1707 7.39484 46.6361 7.60412L49.668 3.06734ZM48.5571 8.00985C47.6602 7.54001 46.6549 7.57647 46.3102 8.09186L45.3904 9.46793C45.1612 9.81121 45.2855 10.2805 45.6624 10.6949L46.0001 10.1869C46.1959 9.89457 46.7088 9.85142 47.1654 10.0908C47.5512 10.2914 47.7565 10.6181 47.6971 10.8916H47.4736C47.55 10.6935 47.377 10.4192 47.057 10.2531C46.71 10.0707 46.3184 10.085 46.1847 10.2847L45.7792 10.8916H43.1921L40.9153 15.403H40.9018L41.6041 10.8916H38.7369L37.0924 21.4885H38.6979L36.169 25.2729L36.4476 25.3602L37.3515 26.0497L41.4323 19.9432L41.7583 21.4885H44.8364L43.4297 16.9544L46.6318 12.1627L45.1852 21.4885H50.5115L50.8908 18.9867H48.4317L48.6843 17.3705H50.8908L51.2847 14.8689H49.0782L49.3168 13.3934H51.7766L52.1558 10.8916H48.8232L49.5589 9.78946C49.9042 9.27465 49.4552 8.47776 48.5571 8.00985ZM29.431 23.4819L36.3997 25.5919L42.7988 30.4675L43.5919 32.6073L30.2238 25.621L29.431 23.4819ZM40.7324 16.6258L41.0239 18.0077L40.3437 19.0257L40.7183 16.6258H40.7324ZM43.8545 32.6662L43.0591 30.5453C43.0591 30.5453 44.4531 29.8282 45.041 30.8933L43.8545 32.6662ZM31.6581 23.7313C31.0914 22.7026 29.7748 23.3361 29.6837 23.38L29.6801 23.3817L31.5251 23.9289L31.6581 23.7313ZM26.6449 17.0753L27.5444 21.4885H30.6502L29.2028 17.0753C29.8117 16.8508 30.2826 16.4994 30.6152 16.0214C30.9476 15.5439 31.1608 15.0092 31.2547 14.4193C31.2733 14.2695 31.2899 14.1264 31.3039 13.9904C31.3179 13.8549 31.3253 13.7215 31.3253 13.59C31.3253 13.0559 31.2312 12.6159 31.0438 12.2687C30.8561 11.9224 30.594 11.6481 30.2568 11.4468C29.9195 11.2457 29.5166 11.1023 29.0481 11.0182C28.5796 10.9338 28.0691 10.8916 27.5164 10.8916H24.7476L23.1031 21.4885H25.9703L26.406 18.6635C26.4526 18.4014 26.4902 18.1415 26.5181 17.8834C26.5422 17.6662 26.5658 17.447 26.5896 17.2263L26.5897 17.225L26.6028 17.1035L26.6449 17.0753ZM27.5585 15.6843C27.399 15.7593 27.2255 15.7966 27.0383 15.7966L26.8558 15.7827L27.2635 13.1684H27.3756C27.7037 13.1684 27.9635 13.248 28.1556 13.4071C28.3477 13.5667 28.4439 13.8147 28.4439 14.1521C28.4439 14.1988 28.4416 14.2458 28.4371 14.2927C28.432 14.3395 28.4251 14.3912 28.4158 14.4473C28.3877 14.6159 28.3359 14.7826 28.2613 14.946C28.1865 15.1102 28.0902 15.2555 27.9732 15.3821C27.8557 15.5086 27.7179 15.609 27.5585 15.6843ZM7.88631 21.4885L6.98677 17.0753L6.94474 17.1035L6.92211 17.3131L6.92207 17.3134C6.90144 17.5047 6.88094 17.6948 6.86015 17.8834C6.83213 18.1415 6.79467 18.4014 6.74795 18.6635L6.31205 21.4885H3.44491L5.08963 10.8916H7.85834C8.4109 10.8916 8.92167 10.9338 9.39005 11.0182C9.85848 11.1023 10.2615 11.2457 10.5987 11.4468C10.9358 11.6481 11.198 11.9224 11.3854 12.2687C11.5732 12.6159 11.667 13.0559 11.667 13.59C11.667 13.7215 11.6595 13.8549 11.6459 13.9904C11.6317 14.1264 11.6152 14.2695 11.5964 14.4193C11.5029 15.0092 11.2895 15.5439 10.957 16.0214C10.6245 16.4994 10.1536 16.8508 9.54469 17.0753L10.9921 21.4885H7.88631ZM7.38018 15.7966C7.56729 15.7966 7.74093 15.7593 7.90043 15.6843C8.05965 15.609 8.19782 15.5086 8.31494 15.3821C8.43212 15.2555 8.5282 15.1102 8.60324 14.946C8.67769 14.7826 8.72933 14.6159 8.75776 14.4473C8.76696 14.3912 8.77388 14.3395 8.77886 14.2927C8.78344 14.2458 8.78584 14.1988 8.78584 14.1521C8.78584 13.8147 8.6897 13.5667 8.4976 13.4071C8.30527 13.248 8.0454 13.1684 7.71742 13.1684H7.6054L7.19781 15.7827L7.38018 15.7966ZM16.7531 10.8916H19.0578C19.7697 10.8916 20.3932 10.9851 20.9271 11.1729C21.461 11.3603 21.9084 11.6296 22.2694 11.9807C22.63 12.332 22.9017 12.7583 23.0847 13.26C23.2672 13.7611 23.3588 14.3258 23.3588 14.9532C23.3588 15.141 23.3514 15.3326 23.3378 15.5296C23.3236 15.7262 23.2975 15.9326 23.2604 16.148C23.1381 16.9632 22.9534 17.6609 22.705 18.2421C22.4563 18.8233 22.1712 19.3103 21.8477 19.7037C21.5245 20.0971 21.1751 20.4133 20.8009 20.6528C20.4257 20.8912 20.051 21.0716 19.6763 21.1931C19.3016 21.3152 18.9361 21.395 18.5802 21.4321C18.2236 21.4701 17.9007 21.4885 17.6102 21.4885H15.1087L16.7531 10.8916ZM18.3693 18.9307C18.6974 18.9307 18.976 18.8396 19.2055 18.6566C19.4347 18.4743 19.6247 18.2489 19.7748 17.982C19.9242 17.715 20.042 17.4294 20.1261 17.1246C20.2101 16.8202 20.2711 16.5414 20.3087 16.2884C20.365 15.9703 20.3932 15.6233 20.3932 15.2482C20.3932 15.0234 20.3769 14.8082 20.3437 14.6019C20.311 14.3959 20.2501 14.2131 20.1611 14.0534C20.0721 13.8946 19.9503 13.7684 19.7958 13.6743C19.6413 13.5808 19.4468 13.5338 19.2124 13.5338L18.3693 18.9307ZM16.3068 10.8916L15.9276 13.3934H13.4681L13.2288 14.8689H15.4355L15.0421 17.3705H12.8355L12.5825 18.9867H15.0421L14.6626 21.4885H11.4854L10.1225 17.3344C10.6262 17.08 11.0352 16.7295 11.3418 16.2889C11.7132 15.755 11.9549 15.1507 12.0614 14.4767C12.0804 14.3243 12.0976 14.1781 12.1117 14.0387C12.1271 13.8869 12.1355 13.736 12.1355 13.59C12.1355 12.9799 12.0221 12.4606 11.7977 12.0458C11.5911 11.6643 11.3024 11.3552 10.9451 11.1177L10.9802 10.8916H16.3068ZM36.3265 10.8916L36.9309 21.4885H33.9656V20.1255H32.0402L31.5906 21.4885H31.1436L30.0076 18.0261L30.4581 16.8859C30.6642 16.7101 30.8448 16.5113 30.9999 16.2889C31.3715 15.755 31.6127 15.1507 31.7197 14.4767C31.7388 14.3242 31.7558 14.1781 31.7701 14.0387C31.7855 13.8868 31.7938 13.736 31.7938 13.59C31.7938 13.5765 31.7928 13.5637 31.7919 13.5508L31.7919 13.5508C31.791 13.5394 31.7902 13.5279 31.79 13.5161L32.8269 10.8916H36.3265ZM33.5441 15.4168L32.7709 17.8764H33.9794L34.05 15.4168C34.0592 15.089 34.0732 14.7562 34.092 14.4193L34.0987 14.2979L34.099 14.2939L34.0991 14.2921C34.1154 13.9983 34.1316 13.7082 34.1484 13.4213H34.1198C34.0261 13.7495 33.9324 14.082 33.8391 14.4193C33.7452 14.7562 33.6468 15.089 33.5441 15.4168ZM3.36659 26.1722C2.9706 26.1722 2.82487 25.9949 2.8954 25.5962L3.23387 23.6746C3.30392 23.2771 3.51197 23.1 3.90824 23.1C4.30581 23.1 4.45172 23.2771 4.3819 23.6746L4.32222 24.0125H4.02302L4.08264 23.6746C4.11506 23.4929 4.03053 23.3783 3.85795 23.3764C3.72629 23.3764 3.57194 23.4546 3.53301 23.6746L3.19407 25.5962C3.16177 25.7801 3.24665 25.8941 3.41548 25.8941C3.58577 25.8941 3.71151 25.7801 3.74399 25.5962L3.88855 24.7744H3.71749L3.76644 24.4963H4.2367L4.04272 25.5962C3.97284 25.9939 3.76433 26.1717 3.36659 26.1722ZM7.88542 26.1215H7.58358L7.61336 25.4551H7.01561L6.8085 26.1215H6.50836L6.82046 25.1121L7.47601 23.1499H7.96737L7.9298 25.1044L7.88542 26.1215ZM7.71208 23.1946L7.10084 25.177H7.62421L7.71208 23.1946ZM11.4812 26.1215L12.0055 23.1499H11.6874L10.681 25.5423L10.5112 23.1499H10.1931L9.66913 26.1215H9.95356L10.3305 23.9857L10.4892 26.1215H10.6764L11.5818 23.9654L11.2015 26.1215H11.4812ZM14.0254 26.1215L14.5493 23.1499H14.8485L14.3243 26.1215H14.0254ZM18.3486 26.1215L18.8721 23.1517L18.6061 23.1562L18.2246 25.3196L18.0417 23.1499H17.725L17.2008 26.1215H17.4821L17.8555 24.0048L18.0316 26.1215H18.3486ZM21.3641 26.1722C20.9679 26.1722 20.8222 25.9949 20.8927 25.5962L21.2314 23.6746C21.3012 23.2771 21.5095 23.1 21.9057 23.1C22.3032 23.1 22.4493 23.2771 22.3793 23.6746L22.3198 24.0125H22.0207L22.08 23.6746C22.1124 23.4929 22.0278 23.3783 21.8554 23.3764C21.7236 23.3764 21.5694 23.4546 21.5304 23.6746L21.1916 25.5962C21.159 25.7801 21.2441 25.8941 21.4131 25.8941C21.583 25.8941 21.7089 25.7801 21.7413 25.5962L21.8859 24.7744H21.7149L21.7639 24.4963H22.2342L22.0402 25.5962C21.9702 25.9939 21.7616 26.1717 21.3641 26.1722Z" fill="#919EAB"/>
</g>
<defs>
<clipPath id="clip0_4416_8721">
<rect width="55.1034" height="34" fill="white" transform="translate(0.448273 0.000976562)"/>
</clipPath>
</defs>
</svg>

<svg width="56" height="34" fill="none" xmlns="http://www.w3.org/2000/svg"><g clip-path="url(#a)"><path fill-rule="evenodd" clip-rule="evenodd" d="M55.181 2.508C54.975 1.7 54.332.96 53.416.482A4.078 4.078 0 0 0 51.542 0c-.908 0-1.674.365-2.1 1.002l-.002.002-.556.833c-.05.075-.092.153-.125.233-.073.08-.14.164-.2.255l-3.033 4.536c-.05.075-.091.154-.125.234-.073.08-.14.164-.2.254l-.92 1.377c-.043.063-.081.128-.115.194H4.437c-.655 0-1.214.476-1.318 1.123L.465 26.624a1.335 1.335 0 0 0 1.318 1.546h30.436l10.755 5.62c.146.077.301.124.459.143a1.348 1.348 0 0 0 .422.068c.442 0 .859-.22 1.109-.592l1.187-1.773c.278-.415.3-.95.059-1.388-.447-.81-1.245-1.274-2.19-1.274-.304 0-.59.049-.833.111l-1.202-.915H50.3c.656 0 1.214-.477 1.318-1.124l2.655-16.58a1.335 1.335 0 0 0-1.319-1.545h-1.207l2.282-3.413c.062-.093.116-.19.16-.29.06-.06.115-.126.163-.199l.556-.83a2.062 2.062 0 0 0 .274-1.68Zm-4.63-.762c.344-.514 1.352-.55 2.247-.082.897.47 1.347 1.266 1.001 1.78l-.557.833c-.05-.514-.495-1.077-1.219-1.455-.722-.376-1.495-.45-2.03-.243l.557-.833Zm-.883 1.321c.343-.514 1.35-.551 2.247-.082.897.468 1.347 1.266 1.003 1.782l-3.033 4.535c-.05-.515-.496-1.077-1.22-1.455-.722-.377-1.494-.452-2.029-.243l3.032-4.537Zm-1.11 4.943c-.898-.47-1.903-.434-2.248.082l-.92 1.376c-.229.343-.105.813.272 1.227l.338-.508c.196-.292.709-.336 1.165-.096.386.2.592.527.532.8h-.223c.076-.197-.097-.472-.417-.638-.347-.182-.739-.168-.872.032l-.406.607h-2.587l-2.277 4.511h-.013l.702-4.511h-2.867l-1.645 10.596h1.606l-2.529 3.785.279.087.904.69 4.08-6.107.326 1.545h3.078l-1.406-4.534 3.202-4.791-1.447 9.325h5.326l.38-2.501h-2.46l.253-1.616h2.207l.394-2.502h-2.207l.239-1.476h2.46l.379-2.501h-3.333l.736-1.103c.345-.514-.104-1.311-1.002-1.78ZM29.43 23.482l6.969 2.11 6.399 4.876.793 2.14-13.368-6.987-.793-2.14Zm11.301-6.856.292 1.382-.68 1.018.374-2.4h.014Zm3.123 16.04-.796-2.12s1.394-.718 1.982.347l-1.186 1.773Zm-12.197-8.935c-.567-1.028-1.883-.395-1.974-.351l-.004.002 1.845.547.133-.198Zm-5.013-6.656.9 4.413h3.105l-1.447-4.413c.609-.224 1.08-.576 1.412-1.054a3.818 3.818 0 0 0 .64-1.602c.018-.15.035-.293.049-.429.014-.135.021-.268.021-.4 0-.534-.094-.974-.281-1.321a2.112 2.112 0 0 0-.787-.822 3.577 3.577 0 0 0-1.209-.429 8.653 8.653 0 0 0-1.532-.126h-2.768l-1.645 10.596h2.867l.436-2.825c.047-.262.084-.521.112-.78l.072-.657v-.001l.013-.122.042-.028Zm.913-1.39c-.159.074-.332.112-.52.112l-.182-.014.407-2.615h.113c.328 0 .587.08.78.24.192.159.288.407.288.744a1.473 1.473 0 0 1-.028.295c-.028.169-.08.336-.155.499-.075.164-.17.31-.288.436a1.341 1.341 0 0 1-.415.302ZM7.886 21.487l-.9-4.413-.041.029-.023.21-.062.57c-.028.258-.065.517-.112.78l-.436 2.824H3.445L5.09 10.892h2.768c.553 0 1.064.042 1.532.126.468.084.871.228 1.209.429.337.201.599.475.786.822.188.347.282.787.282 1.321 0 .132-.008.265-.021.4-.014.136-.03.28-.05.43a3.811 3.811 0 0 1-.639 1.601c-.333.478-.803.83-1.412 1.054l1.447 4.413H7.886Zm-.506-5.691c.187 0 .36-.038.52-.113.16-.075.298-.175.415-.302a1.64 1.64 0 0 0 .288-.436 2.005 2.005 0 0 0 .183-.794c0-.337-.096-.585-.288-.745-.193-.159-.453-.239-.78-.239h-.113l-.407 2.615.182.014Zm9.373-4.905h2.305c.712 0 1.335.093 1.87.28.533.188.98.458 1.341.809.361.351.633.777.816 1.279.182.501.274 1.066.274 1.693 0 .188-.008.38-.021.577a6.35 6.35 0 0 1-.078.618c-.122.815-.307 1.513-.555 2.094-.249.581-.534 1.068-.857 1.462-.323.393-.673.71-1.047.949a4.95 4.95 0 0 1-1.125.54 5.32 5.32 0 0 1-1.096.24 9.21 9.21 0 0 1-.97.055H15.11l1.644-10.596Zm1.616 8.039c.328 0 .607-.091.837-.274.229-.183.419-.408.569-.675.15-.267.267-.553.351-.857.084-.305.145-.584.183-.837.056-.318.084-.665.084-1.04 0-.225-.016-.44-.05-.646a1.648 1.648 0 0 0-.182-.549 1.02 1.02 0 0 0-.365-.379 1.11 1.11 0 0 0-.584-.14l-.843 5.397Zm-2.062-8.04-.38 2.502h-2.459l-.24 1.476h2.207l-.393 2.502h-2.207l-.253 1.616h2.46l-.38 2.502h-3.177l-1.362-4.155a3.239 3.239 0 0 0 1.219-1.045 4.31 4.31 0 0 0 .72-1.812c.018-.153.036-.299.05-.438.015-.152.024-.303.024-.449 0-.61-.114-1.13-.338-1.544a2.58 2.58 0 0 0-.853-.928l.035-.226h5.327Zm20.02 0 .604 10.597h-2.965v-1.363H32.04l-.45 1.363h-.446l-1.136-3.462.45-1.14a3.15 3.15 0 0 0 .542-.597 4.313 4.313 0 0 0 .72-1.812c.019-.153.036-.299.05-.438.015-.152.024-.303.024-.449l-.002-.04a.559.559 0 0 1-.002-.034l1.037-2.624h3.5Zm-2.783 4.526-.773 2.46h1.208l.071-2.46c.01-.328.023-.66.042-.998l.007-.121v-.006l.05-.87h-.03c-.093.327-.187.66-.28.997-.094.337-.192.67-.295.998ZM3.367 26.172c-.396 0-.542-.177-.472-.576l.339-1.921c.07-.398.278-.575.674-.575.398 0 .544.177.474.575l-.06.337h-.299l.06-.337c.032-.182-.052-.297-.225-.299-.132 0-.286.079-.325.299l-.339 1.921c-.032.184.053.298.221.298.17 0 .297-.114.329-.298l.145-.822h-.172l.05-.278h.47l-.194 1.1c-.07.398-.279.576-.676.576Zm4.518-.05h-.301l.03-.667h-.598l-.207.667h-.3l.311-1.01.656-1.962h.491l-.037 1.954-.045 1.018Zm-.173-2.927-.611 1.982h.523l.088-1.982Zm3.77 2.927.524-2.972h-.319l-1.006 2.392-.17-2.392h-.318l-.524 2.972h.285l.377-2.136.158 2.136h.187l.906-2.157-.38 2.157h.28Zm2.543 0 .524-2.972h.3l-.525 2.972h-.299Zm4.324 0 .523-2.97-.266.004-.381 2.164-.183-2.17h-.317l-.524 2.972h.281l.373-2.117.177 2.117h.317Zm3.015.05c-.396 0-.542-.177-.471-.576l.338-1.921c.07-.398.278-.575.675-.575s.543.177.473.575l-.06.337h-.298l.059-.337c.032-.182-.052-.297-.225-.299-.131 0-.286.079-.325.299l-.338 1.921c-.033.184.052.298.221.298.17 0 .296-.114.328-.298l.145-.822h-.171l.049-.278h.47l-.194 1.1c-.07.398-.278.576-.676.576Z" fill="#919EAB"/></g><defs><clipPath id="a"><path fill="#fff" transform="translate(.448 .001)" d="M0 0h55.103v34H0z"/></clipPath></defs></svg>
